X: 38
T: JIG: Dusty Windowsills
C: C: Johnny Harling; S: Various
C: Set Leaders: André, Sophie
Z: [Unedited]; glauber at The Session
N: https://thesession.org/members/26966/sets/96710
R: Jig
M: 6/8
L: 1/8
Q: 3/8=116
K: Ador
|:A2B cBA|eAB cBA|GAG EGG|DGG EGG|
A2B cBA|e2d efg|age dBG|BAG A3:||
|:aba age|def gfg|gag gfe|dBA GFG|
EGG DGG|EGG ABc|Bed BAG|BAG A3:||
|:ABA gAf|ABA edB|GFG eGd|GFG edB|
ABA gAf|ABA efg|age dBG|BAG A3:||

